X:6041
T:Sillyfjord
O:england
N:Just Richard R being daft.
M:7/8
K:D
dcB|\
A2FA DFA|B2GB DGB|A2FA DFA|EFGA GFE|\
A2FA DFA|B2GB DGB|ABcd ege|f2d2 ::\
dde|\
f2df fdf|geaf gfe|
f2df Adf|e2ce Ace|\
f2df fdf|geaf gec|\
ABcd ege|f2d2 d2:|


